assets/img/dactl.svg

<?xml version="1.0" encoding="UTF-8" standalone="no"?>
<!DOCTYPE svg PUBLIC "-//W3C//DTD SVG 1.1//EN" "http://www.w3.org/Graphics/SVG/1.1/DTD/svg11.dtd">
<svg width="100%" height="100%" viewBox="0 0 79 41" version="1.1" xmlns="http://www.w3.org/2000/svg" xmlns:xlink="http://www.w3.org/1999/xlink" xml:space="preserve" xmlns:serif="http://www.serif.com/" style="fill-rule:evenodd;clip-rule:evenodd;stroke-linejoin:round;stroke-miterlimit:2;">
    <g>
        <g transform="matrix(1.0636,0,0,1.09861,-5.00343,-0.0063345)">
            <path d="M78.666,6.526C78.666,2.96 75.676,0.064 71.992,0.064L11.408,0.064C7.725,0.064 4.734,2.96 4.734,6.526L4.734,24.911C4.734,28.477 7.725,31.372 11.408,31.372L28.762,31.372L19.521,36.988L39.852,31.372L71.992,31.372C75.676,31.372 78.666,28.477 78.666,24.911L78.666,6.526Z" style="fill:rgb(42,42,42);"/>
        </g>
        <path d="M74.754,8.79C74.754,6.071 71.616,2.346 68.896,2.346L9.289,2.346C6.57,2.346 3.805,6.09 3.805,8.81L3.805,18.665C3.805,21.385 6.535,26.008 9.255,26.008L68.862,26.008C71.582,26.008 74.754,21.366 74.754,18.646L74.754,8.79Z" style="fill:rgb(42,42,42);"/>
    </g>
    <g transform="matrix(1.23065,0,0,1.24111,431.585,-332.681)">
        <g transform="matrix(1.31694,0,0,1.27124,107.57,-78.031)">
            <path d="M-331.4,291.8C-331.2,291.5 -331.2,291.3 -331.2,290.8C-331.2,289.7 -331.1,287.3 -329.6,286.1C-328.1,284.9 -327.6,283.9 -327.2,283C-327,282.5 -326.8,282.1 -326.4,281.7C-326.1,281.5 -325.5,281.3 -324.9,281.1C-323.9,280.8 -322.7,280.5 -321.7,279.6C-321,279 -320.5,278.1 -320.1,277.4C-319.5,276.3 -319.1,275.6 -318.1,275.4C-316.7,275.1 -315.9,275.6 -315.8,275.7C-315.3,276 -314.7,275.9 -314.4,275.4C-314.1,274.9 -314.2,274.3 -314.7,274C-314.8,274 -316.3,272.9 -318.5,273.4C-320.3,273.8 -321.1,275.2 -321.8,276.4C-322.2,277 -322.5,277.6 -323,278C-323.7,278.6 -324.6,278.8 -325.4,279C-326.3,279.2 -327.1,279.5 -327.7,280C-328.4,280.6 -328.7,281.3 -329,281.9C-329.4,282.7 -329.7,283.4 -330.8,284.2C-333,285.9 -333.1,289 -333.2,290.4L-333.2,290.7C-333.3,291.1 -333.1,291.6 -332.7,291.8C-332.5,291.9 -332.4,291.9 -332.2,291.9C-331.9,292.3 -331.5,292.2 -331.4,291.8Z" style="fill:rgb(255,0,0);fill-rule:nonzero;"/>
        </g>
        <g transform="matrix(1.98053,0,0,1.97666,320.768,-285.537)">
            <path d="M-320.8,283.1C-321.7,283.3 -323.4,284 -323.7,285.9C-323.9,286.9 -325.1,287.4 -325.1,287.4C-325.6,287.6 -325.9,288.1 -325.7,288.7C-325.6,289.1 -325.2,289.4 -324.8,289.4C-324.7,289.4 -324.6,289.4 -324.5,289.3C-324.4,289.3 -322.1,288.5 -321.7,286.2C-321.6,285.3 -320.5,285.1 -320.5,285.1C-320,285 -319.6,284.5 -319.7,283.9C-319.7,283.3 -320.2,283 -320.8,283.1Z" style="fill:rgb(255,0,0);fill-rule:nonzero;"/>
        </g>
        <g transform="matrix(2.03244,0,0,1.90531,363.363,-252.725)">
            <path d="M-343.4,280.4C-343.2,280.4 -343,280.5 -342.7,280.5C-341.8,280.5 -340.6,280.2 -339.8,279.2C-339.3,278.6 -338.5,278.9 -338.4,278.9C-337.9,279.1 -337.3,278.8 -337.1,278.3C-336.9,277.8 -337.2,277.2 -337.7,277C-338.5,276.7 -340.2,276.6 -341.3,277.9C-341.8,278.6 -343,278.4 -343,278.4C-343.5,278.3 -344.1,278.7 -344.2,279.2C-344.3,279.7 -344,280.3 -343.4,280.4Z" style="fill:rgb(255,0,0);fill-rule:nonzero;"/>
        </g>
        <g transform="matrix(1,0,0,1,-10.3958,3.58144)">
            <path d="M-287.1,282.2C-287.4,281 -288.1,278.2 -290.4,277.1C-291.5,276.6 -291.9,276 -292.4,275.4C-292.8,274.9 -293.2,274.3 -294,273.9C-294.7,273.5 -295.5,273.5 -296.3,273.4C-297.1,273.4 -297.9,273.3 -298.6,272.9C-299.1,272.6 -299.5,272.2 -299.9,271.7C-300.7,270.8 -301.6,269.7 -303.4,269.6C-303.8,269.6 -304.3,269.6 -304.7,269.7C-305.2,269.8 -305.6,270.4 -305.5,270.9C-305.4,271.4 -304.8,271.8 -304.3,271.7C-304.1,271.6 -303.8,271.6 -303.5,271.6C-302.7,271.6 -302.2,272.1 -301.5,273C-301,273.6 -300.4,274.2 -299.7,274.7C-298.6,275.3 -297.5,275.4 -296.6,275.4C-296,275.4 -295.5,275.5 -295.2,275.6C-294.8,275.8 -294.6,276.1 -294.3,276.5C-293.8,277.2 -293.2,278 -291.6,278.8C-290.2,279.5 -289.6,281.6 -289.4,282.6C-289.3,283 -289.2,283.3 -289,283.5C-288.8,283.7 -288.5,283.8 -288.3,283.8C-288.1,283.8 -287.8,283.7 -287.6,283.5C-287.3,283.2 -287.2,282.7 -287.4,282.3C-287.1,282.4 -287.1,282.3 -287.1,282.2Z" style="fill:rgb(255,0,0);fill-rule:nonzero;"/>
        </g>
        <g transform="matrix(1,0,0,1,-10.5133,-6.69124)">
            <path d="M-294.9,280.5C-294.9,280.5 -296,280.3 -296.3,279.5C-296.9,277.9 -298.6,277.4 -299.4,277.5C-299.9,277.5 -300.4,278 -300.4,278.5C-300.4,279 -299.9,279.5 -299.4,279.5C-299.3,279.5 -298.5,279.5 -298.2,280.2C-297.6,281.7 -296,282.3 -295.2,282.5L-295.1,282.5C-294.6,282.5 -294.2,282.1 -294.1,281.6C-294,281.1 -294.4,280.6 -294.9,280.5Z" style="fill:rgb(255,0,0);fill-rule:nonzero;"/>
        </g>
    </g>
</svg>

<?xml version="1.0" encoding="utf-8"?>
<!-- Generator: Adobe Illustrator 19.0.0, SVG Export Plug-In . SVG Version: 6.00 Build 0)  -->
<svg version="1.1" id="Layer_1" xmlns="http://www.w3.org/2000/svg" xmlns:xlink="http://www.w3.org/1999/xlink" x="0px" y="0px"
	 viewBox="-359.3 264.9 78.7 40.7" style="enable-background:new -359.3 264.9 78.7 40.7;" xml:space="preserve">
<g>
	<path d="M-331.4,291.8c0.2-0.3,0.2-0.5,0.2-1c0-1.1,0.1-3.5,1.6-4.7c1.5-1.2,2-2.2,2.4-3.1c0.2-0.5,0.4-0.9,0.8-1.3
		c0.3-0.2,0.9-0.4,1.5-0.6c1-0.3,2.2-0.6,3.2-1.5c0.7-0.6,1.2-1.5,1.6-2.2c0.6-1.1,1-1.8,2-2c1.4-0.3,2.2,0.2,2.3,0.3
		c0.5,0.3,1.1,0.2,1.4-0.3c0.3-0.5,0.2-1.1-0.3-1.4c-0.1,0-1.6-1.1-3.8-0.6c-1.8,0.4-2.6,1.8-3.3,3c-0.4,0.6-0.7,1.2-1.2,1.6
		c-0.7,0.6-1.6,0.8-2.4,1c-0.9,0.2-1.7,0.5-2.3,1c-0.7,0.6-1,1.3-1.3,1.9c-0.4,0.8-0.7,1.5-1.8,2.3c-2.2,1.7-2.3,4.8-2.4,6.2
		c0,0.1,0,0.2,0,0.3c-0.1,0.4,0.1,0.9,0.5,1.1c0.2,0.1,0.3,0.1,0.5,0.1C-331.9,292.3-331.5,292.2-331.4,291.8z"/>
	<path d="M-311.1,277.9C-311.1,277.9-311.2,277.9-311.1,277.9c-0.6,0-1,0.5-1,1c0,0.6-0.2,2.3-1.1,2.8c-2.6,1.4-2.2,3.8-1.5,5.9
		c0.1,0.3,0.3,0.9,0,1.2c-0.2,0.3-1,0.5-2,0.3c-3.9-0.7-5.3,1.3-5.8,2.5c-0.1,0.2-0.2,0.4-0.3,0.6c-0.4,1-1.1,3-2.1,2.9
		c-2-0.2-3.6,0-5.1,1.9c-0.5,0.6-0.9,0.5-1.2,0.4c-0.5-0.3-1.1-0.2-1.4,0.3c-0.3,0.5-0.2,1.1,0.3,1.4c0.3,0.2,0.9,0.4,1.5,0.4
		c0.7,0,1.6-0.3,2.3-1.2c0.9-1.1,1.6-1.3,3.3-1.1c2.5,0.2,3.6-2.6,4.2-4.2c0.1-0.2,0.2-0.4,0.2-0.6c0.2-0.4,0.8-1.8,3.7-1.3
		c1.7,0.3,3.1-0.1,3.9-1c0.5-0.6,0.9-1.5,0.3-3.1c-0.9-2.5-0.4-3,0.5-3.5c2.2-1.2,2.2-4.5,2.2-4.6
		C-310.2,278.3-310.6,277.9-311.1,277.9z"/>
	<path d="M-320.8,283.1c-0.9,0.2-2.6,0.9-2.9,2.8c-0.2,1-1.4,1.5-1.4,1.5c-0.5,0.2-0.8,0.7-0.6,1.3c0.1,0.4,0.5,0.7,0.9,0.7
		c0.1,0,0.2,0,0.3-0.1c0.1,0,2.4-0.8,2.8-3.1c0.1-0.9,1.2-1.1,1.2-1.1c0.5-0.1,0.9-0.6,0.8-1.2C-319.7,283.3-320.2,283-320.8,283.1z
		"/>
	<path d="M-343.4,280.4c0.2,0,0.4,0.1,0.7,0.1c0.9,0,2.1-0.3,2.9-1.3c0.5-0.6,1.3-0.3,1.4-0.3c0.5,0.2,1.1-0.1,1.3-0.6
		c0.2-0.5-0.1-1.1-0.6-1.3c-0.8-0.3-2.5-0.4-3.6,0.9c-0.5,0.7-1.7,0.5-1.7,0.5c-0.5-0.1-1.1,0.3-1.2,0.8S-344,280.3-343.4,280.4z"/>
	<path d="M-280.9,286.9c-0.4-0.7-1.3-2.4-0.9-3.7c0.5-2,0.1-3.2-1.7-4.9c-0.8-0.8-1.2-2.2-1.6-3.5c-0.3-1-0.6-1.9-1-2.4
		c-0.7-1-2.1-1.4-3.6-1.9c-0.8-0.2-1.6-0.5-2.2-0.8c-0.5-0.3-1-0.9-1.5-1.5c-0.9-1.1-2-2.5-3.8-2.5c-0.8,0-1.7-0.2-2.5-0.3
		c-1.9-0.3-3.6-0.6-4.6,0.1c-0.9,0.6-2.9,0.9-3.5,0.8c-1.2-0.2-3.2,0.9-4,2.6c-0.7-0.2-1.3-0.2-1.8,0c-0.7,0.3-2.9,0.4-4.1-0.1
		c-1.3-0.5-3,0.1-5,0.9c-0.4,0.2-0.9,0.3-1.3,0.5v-0.1c-0.5-0.6-1.1-1-1.6-1.1c-0.1-0.1-0.2-0.4-0.3-0.6c-0.5-0.8-1.2-2.1-2.7-2.8
		c-0.8-0.4-2-0.3-3.4-0.3c-1.3,0-2.7,0.1-3.7-0.2c-1.8-0.5-3.2,0.5-4.4,1.2c-0.7,0.5-1.3,0.9-1.9,1c-1.1,0-2,0-2.8,0
		c-1.6,0-3.1,0-4,0.7c-0.6,0.4-1.1,1.2-1.7,2c-0.8,1.1-1.6,2.4-2.6,2.9c-2.3,1.1-3,2-3.2,4.1c-0.1,1.3-1.5,2.7-2,3.2
		c-0.8,0.8-1,2.2-1,3.3c0,0.8,0.2,2.3,1.2,3.2c1.2,1,2.9,3.5,3,3.6c1.9,2.4,4.2,2.1,5.5,2c0.3,0,0.7-0.1,0.8-0.1
		c0.5,0.5,1.3,0.8,2.1,0.8c1.2,0,2.6-0.5,3.5-1c0.4-0.2,1.7-0.1,2.8,0c0.5,0,0.9,0.1,1.4,0.1c0.1,0.3,0.2,0.6,0.3,0.9
		c0.7,1.4,0.1,3.4-0.2,4.3c-0.3,1.1,0.2,2.6,0.8,3.7c0.4,0.8,1.4,2.1,2.9,2.4c1.7,0.4,4.8,1.8,4.8,1.8h0.1c0.9,0.4,1.7,0.5,2.4,0.5
		c1.8,0,3.1-0.9,4-1.6c0.3-0.2,0.7-0.5,0.8-0.6c2,0.7,4.2-1.6,5.2-3.1c0.3-0.5,1.6-1.1,2.8-1.6c0.9-0.4,1.9-0.9,2.9-1.4
		c1.6-1,2-2.2,2.3-3.2c0.2-0.8,0.4-1.2,0.9-1.6c1-0.7,1.8-1.4,2.3-2.3c0.6,0.6,1.3,1.2,2.3,1.5c1,0.3,1.9,0.6,2.8,0.8
		c1.1,0.3,2.3,0.5,2.7,0.9c1.1,1.2,3.5,2.8,5.2,1.9c0.2,0,0.5,0.2,0.8,0.3c0.7,0.3,1.7,0.8,2.9,0.8c0.9,0,1.9-0.3,3-1
		c0,0,2.4-1.8,3.9-2.5c1.3-0.6,1.9-1.9,2.2-2.7C-280.6,289.3-280.4,287.8-280.9,286.9z M-339.2,290.1c-0.4,0-0.7-0.1-1.1-0.1
		c-1.6-0.1-3-0.3-3.9,0.2c-1.3,0.7-2.9,0.9-3.2,0.6c-0.7-0.8-1.6-0.6-2.5-0.5c-1.2,0.2-2.5,0.3-3.7-1.2c-0.1-0.1-1.9-2.7-3.2-3.9
		c-0.3-0.3-0.5-1-0.6-1.8c0-1,0.3-1.7,0.4-1.8c0.7-0.7,2.5-2.4,2.6-4.5c0.1-1.2,0.2-1.6,2-2.4c1.5-0.7,2.6-2.3,3.4-3.5
		c0.4-0.6,0.9-1.3,1.2-1.5c0.4-0.3,1.8-0.3,2.8-0.3c0.9,0,1.8,0,2.7-0.1c1-0.2,1.9-0.7,2.7-1.3c1.2-0.8,1.9-1.2,2.7-1
		c1.3,0.4,2.9,0.3,4.3,0.3c1,0,2.2-0.1,2.6,0.1c0.9,0.4,1.3,1.2,1.7,1.9c0.4,0.7,0.8,1.4,1.6,1.5l0,0c-0.9,0.5-1.5,1.5-2.1,2.5
		c-0.5-1.4-1.5-2.6-3.3-2.7c-1.5-0.1-2.6,0.5-3.5,1c-0.6,0.3-1.1,0.6-1.7,0.7c-0.7,0.2-1.5-0.1-2.3-0.3c-0.8-0.2-1.6-0.4-2.3-0.2
		c-0.9,0.2-1.4,0.6-1.9,1c-0.6,0.4-1.2,0.8-2.4,1c-2.5,0.4-4,2.8-4.7,3.8c-0.1,0.1-0.1,0.2-0.1,0.2c-0.3,0.3-0.4,0.8-0.1,1.2
		c0.2,0.3,0.5,0.5,0.9,0.5c0.2,0,0.3,0,0.5-0.1c0.3-0.2,0.4-0.3,0.6-0.7c0.5-0.8,1.6-2.7,3.2-2.9c1.7-0.2,2.6-0.9,3.3-1.4
		c0.4-0.3,0.7-0.5,1.2-0.6c0.3-0.1,0.9,0.1,1.4,0.2c0.9,0.2,2,0.5,3.2,0.3c0.9-0.2,1.6-0.5,2.3-0.9c0.9-0.4,1.6-0.8,2.6-0.8
		c1.8,0.1,1.8,3,1.8,3.1c0,0.1,0,0.1,0,0.2c-0.1,0.1-0.1,0.2-0.2,0.2c-0.6,0.5-1.4,0.9-2.3,1.4c-1.5,0.8-3,1.6-3.5,2.8
		c-0.3,0.7-0.4,1.7-0.5,2.8c0,0.2,0,0.5-0.1,0.7c-0.1-0.1-0.3-0.2-0.4-0.3c-2.8-2.3-4.8-1.4-5.8-0.6c-0.1,0.1-0.3,0.2-0.5,0.4
		c-0.7,0.6-2.1,1.8-2.8,1.3c-1.5-1-2.9-1.6-4.9-0.8c-0.4,0.2-0.8,0.1-0.9-0.2c-0.3-0.5-0.9-0.7-1.3-0.4c-0.5,0.3-0.7,0.9-0.4,1.4
		c0.4,0.8,1.7,1.8,3.4,1.1c1.1-0.4,1.8-0.3,3,0.5c0.5,0.3,1,0.5,1.5,0.5c1.5,0,2.9-1.2,3.7-1.9c0.2-0.1,0.3-0.2,0.4-0.3
		c0.3-0.2,1.3-1,3.3,0.6c0.4,0.4,0.9,0.6,1.3,0.8c-0.1,0.6-0.3,1.1-0.6,1.5C-338.6,288.4-339,289.3-339.2,290.1z M-310.2,291
		c-1.2,0.8-1.5,1.8-1.7,2.7c-0.3,0.9-0.5,1.5-1.4,2s-1.8,0.9-2.7,1.3c-1.6,0.7-3,1.4-3.6,2.3c-0.9,1.4-2.3,2.5-2.9,2.4
		c-1-0.4-1.9,0.3-2.6,0.8c-1.1,0.8-2.3,1.7-4.4,0.8c-0.3-0.2-3.3-1.6-5.2-2c-0.5-0.1-1.1-0.7-1.6-1.5c-0.5-0.9-0.7-1.8-0.6-2.1
		c0.3-1.1,1.1-3.7,0.1-5.8c-0.6-1.2-0.7-1.7,0.6-3.6c1-1.5,1.2-3.6,1.4-5.2c0.1-0.9,0.2-1.8,0.4-2.2c0.3-0.6,1.5-1.3,2.6-1.9
		c0.9-0.5,1.8-1,2.5-1.6c0.9-0.7,1.4-1.7,1.9-2.7c0.7-1.4,1.2-2.3,2.2-2.5c1-0.2,2-0.6,3-1c1.3-0.5,3-1.1,3.6-0.9
		c1.7,0.7,4.4,0.5,5.5,0.1c0.4-0.1,2.2,0.4,2.8,1.6c0.4,1,1.3,1.5,2.1,1.9c1.1,0.7,2.1,1.2,2.4,3.1c0.5,3.4,0.2,5.6-1,6.5
		c-1.4,1.2-1.1,2.8-0.9,3.8c0,0.2,0.1,0.5,0.1,0.6C-308.1,289.2-308.9,290.1-310.2,291z M-282.9,289.7c-0.3,0.8-0.7,1.3-1.1,1.5
		c-1.6,0.7-4.2,2.6-4.2,2.7c-1.6,1.1-2.8,0.6-3.9,0c-0.8-0.4-1.7-0.8-2.6-0.3c-0.4,0.2-1.8-0.5-2.8-1.5c-0.8-0.8-2.1-1.1-3.7-1.4
		c-0.9-0.2-1.8-0.4-2.6-0.7c-1-0.4-1.7-1.1-2-1.7c0-0.3-0.1-0.7-0.1-1c-0.2-1-0.2-1.5,0.2-1.8c0.1-0.1,0.1-0.1,0.2-0.2
		c0.1,0.1,0.1,0.1,0.2,0.1c1.3,1,3.3,0.4,4.1,0.1c2.4-0.9,3.1,0.1,3.3,0.4c0.1,0.1,0.2,0.3,0.3,0.4c0.8,1.3,2.3,3.7,4.5,3
		c1.4-0.4,2.1-0.4,3,0.4c0.6,0.5,1.3,0.7,1.8,0.7c0.8,0,1.4-0.3,1.8-0.7c0.4-0.4,0.4-1,0-1.4c-0.4-0.4-1-0.4-1.4-0.1
		c-0.3,0.2-0.6,0.2-1-0.1c-1.7-1.4-3.2-1.3-4.9-0.8c-0.8,0.2-1.8-1.3-2.3-2.1c-0.1-0.2-0.2-0.4-0.3-0.5c-0.7-1-2.4-2.4-5.7-1.2
		c-1,0.4-1.9,0.4-2.1,0.2c-0.1-0.1-0.1-0.3-0.1-0.6c0.5-1.5,0.6-3.5,0.2-6.2c-0.4-2.9-2.1-3.8-3.3-4.6c-0.7-0.4-1.1-0.6-1.2-1
		c-0.3-0.8-1-1.5-1.7-2c0.4-0.9,1.5-1.4,1.9-1.4c1.1,0.2,3.5-0.2,4.9-1.1c0.4-0.3,2.1,0,3.2,0.2c0.9,0.2,1.9,0.3,2.8,0.3
		c0.9,0,1.4,0.7,2.3,1.8c0.6,0.8,1.3,1.6,2.2,2.1c0.8,0.4,1.7,0.7,2.5,0.9c1,0.3,2.3,0.7,2.6,1.2c0.2,0.3,0.5,1.1,0.7,1.8
		c0.4,1.5,1,3.3,2.2,4.4c1.5,1.4,1.5,1.8,1.2,2.9c-0.5,2,0.6,4.2,1.1,5.1C-282.6,288-282.6,288.8-282.9,289.7z"/>
	<path d="M-287.1,282.2c-0.3-1.2-1-4-3.3-5.1c-1.1-0.5-1.5-1.1-2-1.7c-0.4-0.5-0.8-1.1-1.6-1.5c-0.7-0.4-1.5-0.4-2.3-0.5
		c-0.8,0-1.6-0.1-2.3-0.5c-0.5-0.3-0.9-0.7-1.3-1.2c-0.8-0.9-1.7-2-3.5-2.1c-0.4,0-0.9,0-1.3,0.1c-0.5,0.1-0.9,0.7-0.8,1.2
		s0.7,0.9,1.2,0.8c0.2-0.1,0.5-0.1,0.8-0.1c0.8,0,1.3,0.5,2,1.4c0.5,0.6,1.1,1.2,1.8,1.7c1.1,0.6,2.2,0.7,3.1,0.7
		c0.6,0,1.1,0.1,1.4,0.2c0.4,0.2,0.6,0.5,0.9,0.9c0.5,0.7,1.1,1.5,2.7,2.3c1.4,0.7,2,2.8,2.2,3.8c0.1,0.4,0.2,0.7,0.4,0.9
		c0.2,0.2,0.5,0.3,0.7,0.3c0.2,0,0.5-0.1,0.7-0.3c0.3-0.3,0.4-0.8,0.2-1.2C-287.1,282.4-287.1,282.3-287.1,282.2z"/>
	<path d="M-294.9,280.5c0,0-1.1-0.2-1.4-1c-0.6-1.6-2.3-2.1-3.1-2c-0.5,0-1,0.5-1,1s0.5,1,1,1l0,0c0.1,0,0.9,0,1.2,0.7
		c0.6,1.5,2.2,2.1,3,2.3h0.1c0.5,0,0.9-0.4,1-0.9C-294,281.1-294.4,280.6-294.9,280.5z"/>
</g>
</svg>
